X: 33243
T: Pull The Knife And Stick It Again
R: jig
M: 6/8
K: Adorian
AGA cBA|GEA GEG|A3 cBA|dec dcB|
A2A cBA|G3 GAB|cBA BAG|1 EAG A2:|2 EAG A2 -||
a|age edB|AGE G2a|age edB|def gbg|
age edB|AGE GAB|cBA BAG|EAG A2:|

